X:1
T:Lux Vera, 10.6.10.6
T:John Bacchus Dykes, 1870
T:Lux Vera, 10.6.10.6
T:Public Domain
C:John Bacchus Dykes, 1870
Z:Public Domain
%%score ( 1 2 ) ( 3 4 )
L:1/8
M:none
K:F
V:1 treble 
V:2 treble 
V:3 bass 
V:4 bass 
V:1
 [CF]2 D2 [CE]2 | [CF]2 F2 [FG]2 [FA]2 | [FB]2 [Ec]2 [FA]2 [Fc]2 | [Dd]2 [Ec]2 [CA]2 F2 | %4
 [EG]2 [CF]2 [CD]2 [CE]2 | [CF]2 [CF]2 [CG]2 [FA]2 | [FB]2 [Fc]2 [Fd]2 [Fd]2 | %7
 [EG]2 [FA]2 [FG]2 [EG]2 | F2 |] %9
V:2
 x2 D2 x2 | x2 F2 x4 | x8 | x6 F2 | x8 | x8 | x8 | x8 | F2 |] %9
V:3
 [F,A,]2 [F,B,]2 [G,B,]2 | [A,C]2 [A,C]2 [B,D]2 [A,C]2 | [G,D]2 [G,B,]2 [F,C]2 [A,,C]2 | %3
 [A,,B,]2 [C,G,]2 F,2 [D,A,]2 | [C,C]2 [A,C]2 [A,C]2 [G,B,]2 | [F,A,]2 [F,A,]2 [E,G,]2 [_E,C]2 | %6
 [D,F,]2 [C,A,]2 [B,,B,]2 [=B,,G,]2 | [C,G,]2 [A,,C]2 [B,,D]2 [C,C]2 | [F,A,]2 |] %9
V:4
 x6 | x8 | x8 | x4 F,2 x2 | x8 | x8 | x8 | x8 | x2 |] %9

